**kern	**kern	**dynam
*part1	*part1	*part1
*staff2	*staff1	*
*I"Piano	*	*
*clefF4	*clefG2	*
*k[b-e-a-d-g-]	*k[b-e-a-d-g-]	*
=1	=1	=1
4A-	4r	.
4F	4d- 4f	.
4D-	4r	.
4AA-	4d- 4f	.
=	=	=
4.D-	4r	.
.	4d- 4f	.
8F	.	.
4A-	4r	<
4An	4d- 4f	.
=	=	=
4B-	4r	[ >
4F	4e- 4f	.
2BB-	4r	.
.	4d- 4f	]
=	=	=
4.D-	4r	p
.	4d- 4f	.
8F	.	.
4A-	4r	.
4B-	4d- 4f	.
=	=	=
4A-	4r	.
4F	4d- 4f	.
4D-	4r	.
4AA-	4d- 4f	.
=	=	=
4.D-	4r	.
.	4d- 4f	.
8F	.	.
4A-	4r	.
!	!LO:TX:b:i:t=dim.	!
4An	4e- [4f	.
=	=	=
4B-	4d- 4f]	<
4F	4e- 4an	.
4r	2d- 2f 2b-	[ pp >
4BB-	.	.
=	=	=
*-	*-	*-
!!!system-decoration: {(s1,s2)}
